X:1
T:Title
%%score { ( 1 3 4 ) | ( 2 5 6 ) }
L:1/8
M:3/4
K:F
V:1 treble nm="Grand Piano"
V:3 treble 
V:4 treble 
V:2 bass 
V:5 bass 
V:6 bass 
V:1
 z2 z2 z[Q:1/4=86] A | z2 A4[K:bass][K:treble] | z2 A4[K:bass] | z2 E2[K:bass] z2 | %4
[M:5/8][K:treble] [DB]/AG/ F2 z |[M:1/8] A |[M:3/4] z2 A4[K:bass][K:treble] | z2 A4[K:bass] | %8
 z2[K:bass] E2 z2 | [B,G]2 [A,F]2 z2 | [DFB]2 [DFB]4 | [CFA]2 [CFA]4 | z (3:2:2G/F E c2 [DEB] | %13
 [DFB]2 [B,FA]4 | [DFB]2 [DFB]4 | [CFA]2 [CFA]4 | .[FA]2 z2 z2 |[M:5/8] [B,CG]2 [A,CF]3 |] %18
V:2
 z2 z2 z C | z z/ B,/ C3 C | z z/ ^C/ =C4 | (3z B,A, z2 z2 |[M:5/8] z/ CB,/ A,2 z |[M:1/8] C | %6
[M:3/4] z z/ B,/ C3 _E | z z/ ^C/ =C4 | (3z B,A, z2 z2 | z2 F,2 z2 | B,,2 B,,4 | F,2 F,4 | z2 C4 | %13
 F,2 F,4 | B,,2 B,,4 | F,2 F,4 | z2 C2 z2 |[M:5/8] [F,,F,]2 [F,,F,]3 |] %18
V:3
 x6 | [A,F]>G z[K:bass] C, z[K:treble] A | [DB]>F z[K:bass] C, F,2 | (3[CA]GF z[K:bass] G,, C,2 | %4
[M:5/8][K:treble] x5 |[M:1/8] x |[M:3/4] [A,F]>G z[K:bass] C, z[K:treble] A | %7
 [DB]>F z[K:bass] C, F,2 | (3[CA]GF[K:bass] z G,, C,2 | x6 | x6 | x6 | .[CFA]2 z2 z2 | x6 | x6 | %15
 x6 | z (3:2:2G/F E3 G |[M:5/8] x5 |] %18
V:4
 x6 | z2 z2[K:bass] F,2[K:treble] | x3[K:bass] x3 | x3[K:bass] x3 |[M:5/8][K:treble] x5 | %5
[M:1/8] x |[M:3/4] z2 z2[K:bass] F,2[K:treble] | x3[K:bass] x3 | x2[K:bass] x4 | x6 | x6 | x6 | %12
 x6 | x6 | x6 | x6 | x6 |[M:5/8] x5 |] %18
V:5
 x6 | [F,,F,]4 z2 | [F,,F,]4 z2 | z2 G,2 z2 |[M:5/8] [F,,F,]3 z2 |[M:1/8] x |[M:3/4] [F,,F,]4 z2 | %7
 [F,,F,]4 z2 | z2 G,2 z2 | (3C,D,E, z2 z2 | x6 | x6 | z (3:2:2B,/A, G, E2 C, | x6 | x6 | x6 | %16
 z2 G,3 [C,B,C] |[M:5/8] x5 |] %18
V:6
 x6 | x6 | x6 | [C,,C,]4 z2 |[M:5/8] x5 |[M:1/8] x |[M:3/4] x6 | x6 | [C,,C,]4 z2 | F,,4 z2 | x6 | %11
 x6 | C,6 | x6 | x6 | x6 | C,6 |[M:5/8] x5 |] %18

